common/src/main/resources/icons/javaee/newui/jpaConsoleToolWindow@20x20.svg

<svg xmlns="http://www.w3.org/2000/svg" width="20" height="20" fill="#CE93D8" viewBox="0 0 24 24"><path d="M20 19V7H4v12zm0-16a2 2 0 0 1 2 2v14a2 2 0 0 1-2 2H4a2 2 0 0 1-2-2V5a2 2 0 0 1 2-2zm-7 14v-2h5v2zm-3.42-4L5.57 9H8.4l3.3 3.3c.39.39.39 1.03 0 1.42L8.42 17H5.59z"/></svg>

<!--
  - The MIT License (MIT)
  -
  - Copyright (c) 2015-2023 Elior "Mallowigi" Boukhobza
  -
  - Permission is hereby granted, free of charge, to any person obtaining a copy
  - of this software and associated documentation files (the "Software"), to deal
  - in the Software without restriction, including without limitation the rights
  - to use, copy, modify, merge, publish, distribute, sublicense, and/or sell
  - copies of the Software, and to permit persons to whom the Software is
  - furnished to do so, subject to the following conditions:
  -
  - The above copyright notice and this permission notice shall be included in all
  - copies or substantial portions of the Software.
  -
  - THE SOFTWARE IS PROVIDED "AS IS", WITHOUT WARRANTY OF ANY KIND, EXPRESS OR
  - IMPLIED, INCLUDING BUT NOT LIMITED TO THE WARRANTIES OF MERCHANTABILITY,
  - FITNESS FOR A PARTICULAR PURPOSE AND NONINFRINGEMENT. IN NO EVENT SHALL THE
  - AUTHORS OR COPYRIGHT HOLDERS BE LIABLE FOR ANY CLAIM, DAMAGES OR OTHER
  - LIABILITY, WHETHER IN AN ACTION OF CONTRACT, TORT OR OTHERWISE, ARISING FROM,
  - OUT OF OR IN CONNECTION WITH THE SOFTWARE OR THE USE OR OTHER DEALINGS IN THE
  - SOFTWARE.
  -
  -->


<svg xmlns="http://www.w3.org/2000/svg" version="1.1" width="20px" height="20px" viewBox="0 0 24 24"
     fill="#CE93D8">
  <path
    d="M20,19V7H4V19H20M20,3A2,2 0 0,1 22,5V19A2,2 0 0,1 20,21H4A2,2 0 0,1 2,19V5C2,3.89 2.9,3 4,3H20M13,17V15H18V17H13M9.58,13L5.57,9H8.4L11.7,12.3C12.09,12.69 12.09,13.33 11.7,13.72L8.42,17H5.59L9.58,13Z"/>
</svg>
